X:1
T:Title
%%score { 1 | 2 }
L:1/8
M:3/4
K:Bb
V:1 treble nm="Grand Piano"
V:2 bass 
V:1
 z2 z2 z[Q:1/4=94] [DB] | [DB]>[DA] [DG]3 [DG] | [_DA]>[DB] [=DF]3 [DF] | %3
 [B,F][B,FG] [CFA][B,FB] [=Ed]>[Ec] |[M:5/8] [Ec]- [Ec]3 z |[M:1/8] [EF] | %6
[M:3/4] [DF]>[DG] [DA]3 [DB] | [Fd]>c [Ge]3 G | F>B d3 B |[M:5/8] c>[DB] [DB]3 |[M:1/8] [DF] | %11
[M:3/4] [DF]>[DG] [DG]3 [DB] | [EB]>[EA] A3 A | A>B c3 A |[M:5/8] [EG]>[DF] [DF]3 |[M:1/8] [Fd] | %16
[M:3/4] [=Ec]>[EG] [FA]3 [Fd] | [Ec]>[DB] [DF]3 [DF] | [EG]>[Ge] d3 B |[M:5/8] c>[DB] [DB]3 |] %20
V:2
 z2 z2 z [B,,F,] | [B,,F,]>[B,,F,] [B,,B,]3 [B,,B,] | [B,,=E,]>[B,,G,] [B,,B,]3 [B,,B,] | %3
 D,_D, C,D, [C,B,]>[C,B,] |[M:5/8] [F,A,]- [F,A,]3 z |[M:1/8] [F,A,] | %6
[M:3/4] [B,,B,]>[B,,B,] [B,,F,]3 [B,,F,] | [B,,B,]>[B,_A] [E,B,]3 [=E,B,_D] | %8
 [F,B,D]>[F,B,D] [F,B,F]3 [F,B,D] |[M:5/8] [F,A,E]>[B,,F,] [B,,F,]3 |[M:1/8] [B,,B,] | %11
[M:3/4] [B,,B,]>[B,,B,] [B,,B,]3 [B,,F,] | [C,F,]>[C,F,] [F,CE]3 [F,CE] | %13
 [F,CE]>[F,G,E] [F,A,E]3 [F,A,E] |[M:5/8] [B,,B,]>[B,,B,] [B,,B,]3 |[M:1/8] [B,,B,] | %16
[M:3/4] [C,B,]>[C,C] [F,C]3 [F,A,] | [B,,B,]>[B,,F,] [B,,B,]3 [B,,B,] | %18
 [E,B,]>[E,B,] [F,B,F]3 [F,B,D] |[M:5/8] [F,A,E]>[B,,F,] [B,,F,]3 |] %20

